X: 9
T: The Humours Of Trim
R: jig
M: 6/8
L: 1/8
K: Dmaj
|:FEF DED| D2d cAG|FF/2F/2F FED|A2F GFE|FEF DED|D2d cAG|FF/2F/2F GFG|A2F GFE:|D2d cAd| cAd cAG|F2d cAG |FF/2F/2F GFE|D2d cde|fed cAG|FF/2F/2F GFG|A2F GFE:|


Tune 88	Setting 12619

